X: 98
T: BARBARY BELL
%R: jig
B: Jean White "100 Popular Hornpipes, Reels, Jigs and Country Dances", Boston 1880 p.40
F: http://www.loc.gov/resource/sm1880.09124.0#seq-1
Z: 2014 John Chambers <jc:trillian.mit.edu>
M: 6/8
L: 1/8
K: G
% - - - - - - - - - - - - - - - - - - - - - - - - - - - - -
D |\
G>AG GBc | d>ed dBG | A>GA BGD | E>FE E2D |\
G>AG GBc | d>ed dBG | A>GA BGD | E2F G2 :|
|: d |\
d>ef gag | f>ed edB | d>ef gag | f>ed e2d |\
d>ef gdB | c>de dBG | A>GA BGD | E2F G2 H:|
% - - - - - - - - - - - - - - - - - - - - - - - - - - - - -

%%sep 1 1 500
%%sep 1 1 500
